X:23
T:Needle Case
Z:abc-transcription Josh Larios <hades@elsewhere.org>, 2017.02.14
Z:abc-copyright This transcription is licensed under a Creative Commons Attribution-ShareAlike 4.0 International License.
G:Key: D
M:C|
K:D
[P:A]y0|: fg | "D"a2g2fed2 | "G"B2g2B2g2 | "D"a2g2fed2 | "A"cA Bc A2fg |
| "D"a2g2fed2 | "G"B2g2B2g2 | "A"AB cd ef ed | cA Bc "D"d2 :|
[P:B]y0|: F2 | "D"D2F2A2d2 | "G"BA Bc d2 dB | "D"A2 ABA2 F2 | "A"E3FE2FE |
| "D"D2F2A2d2 | "G"BA Bc d2 dB | "A"AB cd ef ed | cA Bc "D"d2 :|
%%multicol start
%%leftmargin 5.25in
%%stretchlast 0
%%barnumbers -1   % Disable measure numbers 
K:D clef=none staffscale=0.85
"^An alternate ending phrase\nfor either part:"| A3c ec BA | F2A2d2 :|]
%%multicol end

